assets/images/icon/hatchback.svg

<svg width="33" height="11" viewBox="0 0 33 11" fill="none" xmlns="http://www.w3.org/2000/svg">
<g clip-path="url(#clip0_669_1831)">
<path d="M5.69992 6.38978C5.38448 6.38881 5.07195 6.44778 4.78032 6.56328C4.48869 6.67878 4.22373 6.84853 4.00067 7.06277C3.77762 7.27702 3.60088 7.53151 3.48063 7.81162C3.36038 8.09173 3.29899 8.39191 3.3 8.69489C3.29899 8.99788 3.36038 9.29806 3.48063 9.57817C3.60088 9.85827 3.77762 10.1128 4.00067 10.327C4.22373 10.5413 4.48869 10.711 4.78032 10.8265C5.07195 10.942 5.38448 11.001 5.69992 11C6.01537 11.001 6.3279 10.942 6.61952 10.8265C6.91115 10.711 7.17612 10.5413 7.39917 10.327C7.62223 10.1128 7.79897 9.85827 7.91922 9.57817C8.03947 9.29806 8.10085 8.99788 8.09985 8.69489C8.06252 7.43437 7.01271 6.38978 5.69992 6.38978ZM5.69992 10.2076C4.8376 10.2076 4.125 9.52315 4.125 8.69489C4.125 7.86663 4.8376 7.18219 5.69992 7.18219C6.56225 7.18219 7.27484 7.86663 7.27484 8.69489C7.27484 9.52315 6.6 10.2076 5.69992 10.2076Z" fill="black"/>
<path d="M5.69992 7.57819C5.0624 7.57819 4.49996 8.08256 4.53729 8.69489C4.53885 8.9906 4.66184 9.27377 4.87954 9.48287C5.09724 9.69196 5.39205 9.8101 5.69992 9.8116C5.85289 9.81235 6.00451 9.78409 6.14608 9.72844C6.28765 9.67279 6.4164 9.59084 6.52492 9.4873C6.74973 9.27138 6.86256 8.98293 6.86256 8.69489C6.861 8.39919 6.73801 8.11602 6.52031 7.90692C6.30261 7.69782 6.00779 7.57969 5.69992 7.57819ZM28.2375 6.38978C27.922 6.38881 27.6095 6.44778 27.3179 6.56328C27.0263 6.67878 26.7613 6.84853 26.5382 7.06277C26.3152 7.27702 26.1384 7.53151 26.0182 7.81162C25.8979 8.09173 25.8365 8.39191 25.8376 8.69489C25.8365 8.99788 25.8979 9.29806 26.0182 9.57817C26.1384 9.85827 26.3152 10.1128 26.5382 10.327C26.7613 10.5413 27.0263 10.711 27.3179 10.8265C27.6095 10.942 27.922 11.001 28.2375 11C28.5529 11.001 28.8655 10.942 29.1571 10.8265C29.4487 10.711 29.7137 10.5413 29.9367 10.327C30.1598 10.1128 30.3365 9.85827 30.4568 9.57817C30.577 9.29806 30.6384 8.99788 30.6374 8.69489C30.6374 7.43437 29.5498 6.38978 28.2375 6.38978ZM28.2375 10.1717C27.4125 10.1717 26.6999 9.52356 26.6999 8.73115C26.6999 7.93875 27.3747 7.2543 28.1997 7.2543C28.5972 7.25538 28.978 7.4075 29.259 7.67743C29.5401 7.94736 29.6985 8.31315 29.6996 8.69489C29.7751 9.52315 29.0998 10.1355 28.2375 10.1717Z" fill="black"/>
<path d="M32.625 5.489C31.8 2.67952 30.9377 1.70704 30.8249 1.56281L31.1248 1.41859L31.0497 1.20266C28.3499 0.590739 23.6251 -0.0937054 17.3627 0.122628C13.9503 0.230591 9.63787 3.11218 9.37531 3.22015C8.77512 3.47233 2.70023 4.01255 0.637519 5.27307L0.0750771 6.67781L0.187481 7.14592L0 7.326L0.224807 8.98292L2.84996 9.52315C2.77334 9.25328 2.73553 8.9746 2.73756 8.69489C2.73756 7.14592 4.04992 5.88541 5.6626 5.88541C7.27527 5.88541 8.58763 7.14592 8.58763 8.69489C8.58763 8.98292 8.55031 9.27137 8.47523 9.52315H25.4253C25.3487 9.25328 25.3108 8.9746 25.3129 8.69489C25.3138 7.95003 25.6222 7.23593 26.1706 6.70924C26.7189 6.18254 27.4624 5.88627 28.2379 5.88541C29.7755 5.88541 31.0505 7.03796 31.1629 8.47855V9.23511L32.4753 8.8387L33 6.02963L32.625 5.489ZM2.25019 6.42563L0.900077 6.89374C0.900077 6.89374 1.19996 5.99337 1.80015 5.63322C2.13779 5.45315 3.37508 5.20096 3.37508 5.20096L2.25019 6.42563ZM26.2876 3.90418C26.2503 3.90418 19.3877 4.15637 19.1625 4.15637C18.6374 4.15637 12.825 4.26433 9.03767 4.66074C7.05004 4.84081 4.31248 4.98504 4.31248 4.98504C4.31248 4.98504 6.44985 4.48067 9.03767 4.26474C10.725 3.29226 14.1752 1.38315 16.7252 0.950887C17.2503 0.878776 18.9003 0.842924 18.9003 0.842924L18.4503 3.79663C18.7129 3.79663 19.5001 3.76078 19.6129 3.76078L20.063 0.807072C22.2381 0.807072 23.7753 0.842924 25.3506 1.05926L26.1383 3.54444H26.9633L26.2507 1.27518C28.0508 1.63533 29.9257 2.71578 31.0132 3.79663C30.975 3.76037 27.0002 3.94044 26.2876 3.90418Z" fill="black"/>
<path d="M28.2375 7.61444C27.6 7.65029 27.1126 8.11881 27.1126 8.69488C27.1126 9.27096 27.6 9.77533 28.2375 9.77533C28.8377 9.77533 29.3624 9.27096 29.3624 8.69488C29.3624 8.11881 28.8377 7.61444 28.2375 7.61444Z" fill="black"/>
</g>
<defs>
<clipPath id="clip0_669_1831">
<rect width="33" height="11" fill="white"/>
</clipPath>
</defs>
</svg>

<svg width="33" height="11" fill="currentColor" xmlns="http://www.w3.org/2000/svg"><g clip-path="url(#a)" fill="#000"><path d="M5.7 6.39a2.478 2.478 0 0 0-.92.173 2.401 2.401 0 0 0-.78.5c-.222.214-.4.469-.52.749s-.181.58-.18.883c-.001.303.06.603.18.883s.298.535.52.749a2.4 2.4 0 0 0 .78.5c.292.115.604.174.92.173.315.001.628-.058.92-.174a2.4 2.4 0 0 0 .78-.499c.222-.214.399-.469.52-.749.12-.28.18-.58.18-.883A2.395 2.395 0 0 0 5.7 6.39zm0 3.818c-.862 0-1.575-.685-1.575-1.513 0-.828.713-1.513 1.575-1.513s1.575.685 1.575 1.513c0 .828-.675 1.513-1.575 1.513z"/><path d="M5.7 7.578c-.638 0-1.2.505-1.163 1.117a1.1 1.1 0 0 0 .343.788 1.193 1.193 0 0 0 1.266.245c.142-.055.27-.137.379-.24.225-.217.338-.505.338-.793a1.1 1.1 0 0 0-.343-.788 1.193 1.193 0 0 0-.82-.329zM28.238 6.39a2.478 2.478 0 0 0-.92.173 2.402 2.402 0 0 0-.78.5c-.223.214-.4.469-.52.749s-.181.58-.18.883c-.002.303.06.603.18.883s.297.535.52.749c.223.214.488.384.78.5.291.115.604.174.92.173.315.001.628-.058.92-.174a2.4 2.4 0 0 0 .779-.499c.223-.214.4-.469.52-.749s.181-.58.18-.883c0-1.26-1.087-2.305-2.4-2.305zm0 3.782c-.825 0-1.538-.648-1.538-1.44 0-.793.675-1.478 1.5-1.478.397.001.778.154 1.059.423.281.27.44.636.44 1.018.076.828-.6 1.44-1.462 1.477z"/><path d="M32.625 5.489c-.825-2.81-1.687-3.782-1.8-3.926l.3-.144-.075-.216C28.35.59 23.625-.094 17.363.123 13.95.23 9.638 3.113 9.375 3.22c-.6.252-6.675.793-8.737 2.053L.075 6.678l.112.468-.187.18.225 1.657 2.625.54a2.953 2.953 0 0 1-.112-.828c0-1.55 1.312-2.81 2.925-2.81 1.612 0 2.925 1.26 2.925 2.81 0 .288-.038.576-.113.828h16.95a2.951 2.951 0 0 1-.112-.828c0-.745.31-1.46.858-1.986a2.99 2.99 0 0 1 2.067-.824c1.538 0 2.813 1.153 2.925 2.594v.756l1.312-.396.525-2.81-.375-.54zM2.25 6.426.9 6.894s.3-.9.9-1.26c.338-.18 1.575-.433 1.575-.433L2.25 6.426zm24.038-2.522c-.038 0-6.9.252-7.125.252-.526 0-6.338.108-10.125.505-1.988.18-4.726.324-4.726.324s2.138-.504 4.726-.72c1.687-.973 5.137-2.882 7.687-3.314C17.25.879 18.9.843 18.9.843l-.45 2.954c.263 0 1.05-.036 1.163-.036l.45-2.954c2.175 0 3.712.036 5.288.252l.787 2.485h.825l-.712-2.269c1.8.36 3.675 1.44 4.762 2.522-.038-.037-4.013.143-4.725.107z"/><path d="M28.238 7.614c-.638.036-1.125.505-1.125 1.08 0 .577.487 1.081 1.125 1.081.6 0 1.124-.504 1.124-1.08 0-.576-.524-1.08-1.124-1.08z"/></g><defs><clipPath id="a"><path d="M0 0h33v11H0z"/></clipPath></defs></svg>
